_icons/SVG/559-scraggy.svg

<svg xmlns="http://www.w3.org/2000/svg" viewBox="0 0 32 32"><title>559-scraggy</title><path d="M11.11764,24.098l-.87858.41839.43929.92037L8.69948,26.85923l1.20908,1.046L8.69948,28.99291h1.83246c-7.175,2.77514.54384,4.45562,1.00408,1.297h4.47652V24.098Z" style="fill:#ffd96c"/><path d="M13.50233,15.43778c.61,2.18994-.81318,5.489-3.26327,9.07861h2.677c-.01214-4.06511.82611-7.19521,3.09651-7.215V16.10315Z" style="fill:#ffeaa7"/><path d="M12.916,24.51639h3.09651v-7.215C13.74214,17.32118,12.90389,20.45128,12.916,24.51639Z" style="fill:#e59276"/><rect x="15.05032" width="0.96223" height="2.86584" style="fill:#ea9c7a"/><path d="M8.49172,5.8564a3.84193,3.84193,0,0,1,1.74734,3.56393c0,1.81089-.83978,3.31818-1.95295,3.65715.01643.02378.02807.04982.0448.07342a24.27291,24.27291,0,0,1,7.68163-1.14375V2.46835A9.45653,9.45653,0,0,0,8.49172,5.8564Z" style="fill:#ffe28a"/><path d="M10.23906,9.42033A3.84193,3.84193,0,0,0,8.49172,5.8564a6.1296,6.1296,0,0,0-1.33183,3.754,6.064,6.064,0,0,0,1.12622,3.46711C9.39928,12.73851,10.23906,11.23122,10.23906,9.42033Z" style="fill:#f7f7f7"/><path d="M8.33091,13.1509a9.37678,9.37678,0,0,0,7.68163,3.6015V12.00715A24.27291,24.27291,0,0,0,8.33091,13.1509Z" style="fill:#fff5d8"/><ellipse cx="8.69948" cy="9.46694" rx="0.62755" ry="1.23419" style="fill:#373f3f"/><path d="M13.3732,18.36563c-3.72762.68959-5.8785,2.38874-4.80761,6.15076-.73273.59952.39686,1.98012,1.12959,1.3806.47328.90711,2.39777-.097,1.9245-1.00409.84217-.09357.67482-1.59969-.16735-1.50612-1.90751-1.77248-.27923-2.47645,1.2673-3.20512" style="fill:#fef1c6"/><path d="M20.88236,24.098l.87858.41839-.43929.92037,1.97887,1.42247-1.20908,1.046,1.20908,1.08773H21.46806c7.175,2.77514-.54384,4.45562-1.00408,1.297H15.98746V24.098Z" style="fill:#ffd04d"/><path d="M18.49767,15.43778c-.61,2.18994.81318,5.489,3.26327,9.07861H19.084c.01214-4.06511-.82611-7.19521-3.09651-7.215V16.10315Z" style="fill:#ffe28a"/><path d="M19.084,24.51639H15.98746v-7.215C18.25786,17.32118,19.09611,20.45128,19.084,24.51639Z" style="fill:#dd8b72"/><rect x="15.98746" width="0.96223" height="2.86584" style="fill:#e59276"/><path d="M23.50828,5.8564a3.84193,3.84193,0,0,0-1.74734,3.56393c0,1.81089.83978,3.31818,1.95295,3.65715-.01643.02378-.02807.04982-.0448.07342a24.27291,24.27291,0,0,0-7.68163-1.14375V2.46835A9.45653,9.45653,0,0,1,23.50828,5.8564Z" style="fill:#ffd96c"/><path d="M21.76094,9.42033A3.84193,3.84193,0,0,1,23.50828,5.8564a6.1296,6.1296,0,0,1,1.33183,3.754,6.064,6.064,0,0,1-1.12622,3.46711C22.60072,12.73851,21.76094,11.23122,21.76094,9.42033Z" style="fill:#e3e5e5"/><path d="M23.66909,13.1509a9.37678,9.37678,0,0,1-7.68163,3.6015V12.00715A24.27291,24.27291,0,0,1,23.66909,13.1509Z" style="fill:#fef1c6"/><ellipse cx="23.30052" cy="9.46694" rx="0.62755" ry="1.23419" style="fill:#2b3332"/><path d="M18.6268,18.36563c3.72762.68959,5.8785,2.38874,4.80761,6.15076.73273.59952-.39686,1.98012-1.12959,1.3806-.47328.90711-2.39777-.097-1.9245-1.00409-.84217-.09357-.67482-1.59969.16735-1.50612,1.90751-1.77248.27923-2.47645-1.2673-3.20512" style="fill:#ffeaa7"/></svg>

<svg xmlns="http://www.w3.org/2000/svg" viewBox="0 0 32 32"><path d="M11.118 24.098l-.879.418.44.92-1.98 1.423 1.21 1.046-1.21 1.088h1.833c-7.175 2.775.544 4.456 1.004 1.297h4.477v-6.192z" fill="#ffd96c"/><path d="M13.502 15.438c.61 2.19-.813 5.489-3.263 9.078h2.677c-.012-4.065.826-7.195 3.097-7.215v-1.198z" fill="#ffeaa7"/><path d="M12.916 24.516h3.097v-7.215c-2.27.02-3.11 3.15-3.097 7.215z" fill="#e59276"/><path fill="#ea9c7a" d="M15.05 0h.962v2.866h-.962z"/><path d="M8.492 5.856a3.842 3.842 0 011.747 3.564c0 1.811-.84 3.319-1.953 3.657.017.024.028.05.045.074a24.273 24.273 0 017.682-1.144V2.468a9.457 9.457 0 00-7.521 3.388z" fill="#ffe28a"/><path d="M10.24 9.42a3.842 3.842 0 00-1.748-3.564A6.13 6.13 0 007.16 9.61a6.064 6.064 0 001.126 3.468c1.113-.34 1.953-1.847 1.953-3.658z" fill="#f7f7f7"/><path d="M8.33 13.15a9.377 9.377 0 007.683 3.602v-4.745a24.273 24.273 0 00-7.682 1.144z" fill="#fff5d8"/><ellipse cx="8.699" cy="9.467" rx=".628" ry="1.234" fill="#373f3f"/><path d="M13.373 18.366c-3.727.69-5.878 2.388-4.807 6.15-.733.6.396 1.98 1.13 1.381.472.907 2.397-.097 1.924-1.004.842-.094.675-1.6-.168-1.506-1.907-1.773-.279-2.477 1.268-3.205" fill="#fef1c6"/><path d="M20.882 24.098l.879.418-.44.92 1.98 1.423-1.21 1.046 1.21 1.088h-1.833c7.175 2.775-.544 4.456-1.004 1.297h-4.477v-6.192z" fill="#ffd04d"/><path d="M18.498 15.438c-.61 2.19.813 5.489 3.263 9.078h-2.677c.012-4.065-.826-7.195-3.097-7.215v-1.198z" fill="#ffe28a"/><path d="M19.084 24.516h-3.097v-7.215c2.27.02 3.11 3.15 3.097 7.215z" fill="#dd8b72"/><path fill="#e59276" d="M15.987 0h.962v2.866h-.962z"/><path d="M23.508 5.856a3.842 3.842 0 00-1.747 3.564c0 1.811.84 3.319 1.953 3.657-.017.024-.028.05-.045.074a24.273 24.273 0 00-7.682-1.144V2.468a9.457 9.457 0 017.521 3.388z" fill="#ffd96c"/><path d="M21.76 9.42a3.842 3.842 0 011.748-3.564A6.13 6.13 0 0124.84 9.61a6.064 6.064 0 01-1.126 3.468c-1.113-.34-1.953-1.847-1.953-3.658z" fill="#e3e5e5"/><path d="M23.67 13.15a9.377 9.377 0 01-7.683 3.602v-4.745a24.273 24.273 0 017.682 1.144z" fill="#fef1c6"/><ellipse cx="23.301" cy="9.467" rx=".628" ry="1.234" fill="#2b3332"/><path d="M18.627 18.366c3.727.69 5.878 2.388 4.807 6.15.733.6-.396 1.98-1.13 1.381-.472.907-2.397-.097-1.924-1.004-.842-.094-.675-1.6.168-1.506 1.907-1.773.279-2.477-1.268-3.205" fill="#ffeaa7"/></svg>
